X: 188
T: Yarrawonga Waltz
B: australian dance tunes
M:3/4
L:1/8
R: Waltz
Q: 1/4=100
K:G
V:1 
B6|d2 e2 d2|c6|A6|c6|e2 f2 e2|d6|B6|!
g6|f2 g2 f2|e6|d4 c2|B6|B2 A2 ^G2|A6|_B6|!
B6|d2 e2 d2|c6|A6|c6|e2 f2 e2|d6|B6|!
g6|f2 g2 f2|e6|d4 c2|B6|A2 G2 A2|G6|G4 D2|!
B2 B2 B2|d2 c2 B2|c2 e2 e2|e4 d2|a4 g2|f4 e2|d4 BA|B4 D2|!
B2 B2 B2|d2 c2 B2|c2 e2 e2|e4 d2|a4 g2|f4 e2|d4 BA|G6||
% abcbook-tune_id 62a07850fd2c41c3afdace18


% abcbook-boost 0
% abcbook-tablature 
% abcbook-transpose 
% abcbook-lastupdated 1654683750252
% abcbook-soundfonts 
% abcbook-repeats 1


